X:1
T:Quadrille. CJF.083a
L:1/8
Q:1/8=90
M:6/8
I:linebreak $
K:G
V:1 treble 
V:1
 B/c/"^$" | (d3 g2) f | (fe).e{f} e/d/c/B/A/G/ | (FG).A Ded |{d} cBc B (G/A/B/c/) | d3{G} g2 f | %6
 (fe).e e/d/c/B/A/G/ |$ F>GA DEF | G3 G2 || d | (BG)d (BG)d | c (AF) D2 d | (BG)d (BG)d | %13
 cd/c/B/c/ A2 d | BGd BGg |$ ecc cde | dBG D>EF | G2 B G2"^$" || (B/A/) | ^GEE AEE | cAd cBA | %21
 (FD).D (GD).D | (AD)c B2 D |$ (EG)c FGA | (GBd) gdB | (ABc) edc | c^c"^D Capo"d A2 || %27
